X:1
T:Oh, It Is Wonderful
T:Oh, It Is Wonderful
T:Charles Hutchinson Garbriel
T:Charles Hutchinson Garbriel, 1898
T:Public Domain Courtesy of the Cyber Hymnal™
T:Public Domain Courtesy of the Cyber Hymnal™
C:Charles Hutchinson Garbriel
Z:Public Domain
Z:Courtesy of the Cyber Hymnal™
%%score 1 ( 2 3 )
L:1/8
Q:1/4=113
M:3/4
K:Bb
V:1 treble 
V:2 bass 
V:3 bass 
V:1
 [DF]2 | [DF]2 [DB]2 [DG]2 | [DF]2 [B,D]2 [CE]2 | [DF]2 [DB]2 [DG]2 | [EA]>[EG] [EF]3 [EF] | %5
w: 1.~I|stand all a-|mazed at the|love Je- sus|of- fers me, Con-|
w: 2.~I|mar- vel that|He would de-|scend from His|throne di- vine, To|
w: 3.~I|think of His|hands pierced and|bleed- ing to|pay the debt! Such|
 [EF]2 [Ec]2 [EB]2 | [EA]2 [EG]2 [CE]2 | [EA]2 [EG]2 [EA]2 | [EG]>[E_G] [DF]3 [DF] | %9
w: fused at the|grace that so|ful- ly He|proff- ers me; I|
w: res- cue a|soul so re-|bel- lious and|proud as mine; That|
w: mer- cy, such|love and de-|vo- tion can|I for- get? No,|
 [DF]2 [DB]2 [DG]2 | [DF]2 [B,D]2 [CE]2 | [DF]2 [DB]2 [DG]2 | [FA]>[GB] [Ac]3 [Ac] | %13
w: trem- ble to|know that for|me He was|cru- ci- fied— That|
w: He should ex-|tend His great|love un- to|such as I; Suf-|
w: no! I will|praise and a-|dore at the|mer- cy seat, Un-|
 [Ac]2 [c=e]2 [Bd]2 | [=EG]2 [FA]2"^riten." [GB]2 | [Bd]2 [Ac]2 [GB]2 | %16
w: for me, a|sin- ner, He|suf- fered, He|
w: fi- cient to|own, to re-|deem, and to|
w: til at the|glor- i- fied|throne I kneel|
 [FA]>[=EG] !fermata![_EF]4 ||"^Refrain" [Fd]2 [Fd]2 [Ec]2 | [Ec]>[DB] [DB][Bd] [Ac][GB] | %19
w: bled, and died.|Oh, it is|won- der- ful that He should|
w: jus- ti- fy.|||
w: at His feet.|||
 [GB]>[FA] [FA]"^riten."[Ac] [GB][FA] | [EG]>[DF] [DF]3 z | [Ff]2 [Fe]2 [Fd]2 | [Gc]>[Gd] [Ge]4 | %23
w: care for me! E- nough to|die for me!|Oh, it is|won- der- ful,|
w: ||||
w: ||||
 [Gd]>[Gc] [FB]2 [EA]2 | [DB]4 |] %25
w: won- der- ful to|me!|
w: ||
w: ||
V:2
 F,2 | F,2 B,2 G,2 | F,2 D,2 E,2 | F,2 B,2 G,2 | A,>G, F,3 F, | F,2 C2 B,2 | A,2 G,2 E,2 | %7
w: ~|~ ~ ~|~ ~ ~|~ ~ ~|~ ~ ~ ~|~ ~ ~|~ ~ ~|
 A,2 G,2 A,2 | G,>_G, F,3 F, | F,2 B,2 G,2 | F,2 D,2 E,2 | F,2 B,2 G,2 | A,>B, C3 C | C2 =E2 D2 | %14
w: ~ ~ ~|~ ~ ~ ~|~ ~ ~|~ ~ ~|~ * ~|~ ~ ~ ~|~ ~ ~|
 G,2 A,2 B,2 | D2 C2 B,2 | A,>G, F,4 || [B,,B,]2 [B,,B,]2 [B,,F,]2 | [B,,F,]>[B,,F,] [B,,F,] z3 | %19
w: ~ ~ ~|~ * ~|~ ~ ~|~ won- der-|ful! won- der-|
 [F,C]>[F,C] [F,C] z3 | [B,,B,]>[B,,B,] [B,,B,]3 z | [B,,D]2 [C,A,]2 [D,B,]2 | %22
w: ful! * *|||
 [E,B,]>[D,=B,] [C,C]4 | [D,=B,]>[E,C] [F,D]2 [F,C]2 | [B,,B,]4 |] %25
w: |||
V:3
 x2 | B,,6- | B,,4 x2 | B,,6 | C,6 | F,,6- | F,,6- | F,,6 | B,,4 x2 | B,,6- | B,,6- | B,,6 | F,,6 | %13
 C,6- | C,6- | C,6 | F,,6 || x6 | x6 | x6 | x6 | x6 | x6 | x6 | x4 |] %25

